X: 1
T: The Burning Of The Piper's Hut
R: reel
M: 4/4
L: 1/8
K: Emin
|:EFGA B4|BABd B2 AG|F2 D2 A2 D2|FGAB A2 GF|
EFGA B3 B|BABd B2 AG|F2 D2 B2 AG|F2 E2 E3 D:|
|:EFGA B~E3|d~E3 B2 AG|F2 D2 A2 D2|FGAB A2 GF|
EFGA B~E3|d~E3 B2 AG|F2 D2 B2 AG|F2 E2 E3 D:|


Tune 660	Setting 13691

